teeny/outline/stackoverflow.svg

<svg viewBox="0 0 15 15" xmlns="http://www.w3.org/2000/svg"><path fill="none" stroke="#000" d="M2.5 9v5.5h10V9M4 12.5h7M4 10l7 .7M4.29 7.5l6.7 1.5M5.28 4.5l6.1 3.1M6.98 2l5 4.5M9.48.49l3.5 5"/></svg>

<svg width="15" height="15" viewBox="0 0 15 15" fill="none" xmlns="http://www.w3.org/2000/svg">
<path d="M2.5 9V14.5H12.5V9M4 12.5H11M4 10L11 10.7M4.29999 7.5L11 9M5.29999 4.5L11.4 7.6M7 2L12 6.50002M9.5 0.5L13 5.5" stroke="black"/>
</svg>
